X: 4
T: Boolavogue
R: waltz
S: https://thesession.org/tunes/5322 (with very wrong chords)
S: Tom Morley FB workshop 2021-1-18
M: 3/4
L: 1/8
K: G
|: D2 |\
G4 D2 | G4 Bd | g4 f2 | eg3 e2 |\
d4 e2 | B G3 B2 | A4 G2 | E4 D2 ||
G4 D2 | G4 Bd | g4 f2 | eg3 e2 |\
d4 e2 | B2 A2 GB | A4 G2 | G4 :|
|: d2 |\
d4 B2 | d2 e2 f2 | g4 f2 | eg3 e2 |\
d4 e2 | B3 G3 GB | A4 G2 | E4 D2 | 
G4 D2 | G4 Bd | g4 f2 | eg3 e2 |\
d4 e2 | B2 A2 GB | A4 G2 | G4 || 
